svgs/duotone/igloo.svg

<svg xmlns="http://www.w3.org/2000/svg" viewBox="0 0 576 512"><!--! Font Awesome Pro 6.6.0 by @fontawesome - https://fontawesome.com License - https://fontawesome.com/license (Commercial License) Copyright 2024 Fonticons, Inc. --><path class="fa-secondary" style="fill:var(--fa-secondary-color,inherit);opacity:var(--fa-secondary-opacity,.4);" d="M0 320l96 0 0-128-66.1 0C10.8 230.6 0 274 0 320zm0 32l0 80c0 26.5 21.5 48 48 48l144 0 0-128L0 352zM48.5 160L320 160l0-126.2c-10.5-1.2-21.2-1.8-32-1.8C188.1 32 100.2 82.8 48.5 160zM128 192l0 128 69.5 0c13.2-37.3 48.7-64 90.5-64s77.4 26.7 90.5 64l69.5 0 0-128-320 0zM352 39.1L352 160l175.5 0C487.2 99.8 424.9 55.7 352 39.1zM384 352l0 128 144 0c26.5 0 48-21.5 48-48l0-80-192 0zm96-160l0 128 96 0c0-46-10.8-89.4-29.9-128L480 192z"/><path class="fa-primary" style="fill:var(--fa-primary-color,inherit);opacity:var(--fa-primary-opacity,1);" d="M320 33.8c10.9 1.2 21.5 3 32 5.4L352 160l175.5 0c6.8 10.2 13 20.9 18.6 32L480 192l0 128 96 0 0 32-192 0 0 128-32 0 0-128c0-35.3-28.7-64-64-64s-64 28.7-64 64l0 128-32 0 0-128L0 352l0-32 96 0 0-128-66.1 0c5.5-11.1 11.7-21.8 18.6-32L320 160l0-126.2zM197.5 320c13.2-37.3 48.7-64 90.5-64s77.4 26.7 90.5 64l69.5 0 0-128-320 0 0 128 69.5 0z"/></svg>

<svg xmlns="http://www.w3.org/2000/svg" viewBox="0 0 576 512"><!--! Font Awesome Pro 6.4.2 by @fontawesome - https://fontawesome.com License - https://fontawesome.com/license (Commercial License) Copyright 2023 Fonticons, Inc. --><path class="fa-primary" style="fill:var(--fa-primary-color,inherit);opacity:var(--fa-primary-opacity,1);" d="M320 33.8c10.9 1.2 21.5 3 32 5.4V160H527.5c6.8 10.2 13 20.9 18.6 32H480V320h96v32l-192 0V480H352V352c0-35.3-28.7-64-64-64s-64 28.7-64 64V480H192V352L0 352V320H96V192H29.9c5.5-11.1 11.7-21.8 18.6-32H320V33.8zM197.5 320c13.2-37.3 48.7-64 90.5-64s77.4 26.7 90.5 64H448V192H128V320h69.5z"/><path class="fa-secondary" style="fill:var(--fa-secondary-color,inherit);opacity:var(--fa-secondary-opacity,.4);" d="M288 32c10.8 0 21.5 .6 32 1.8V160H48.5C100.2 82.8 188.1 32 288 32zM527.5 160H352V39.1C424.9 55.7 487.2 99.8 527.5 160zM0 320c0-46 10.8-89.4 29.9-128H96V320L0 320zm197.5 0L128 320V192H448V320l-69.5 0c-13.2-37.3-48.7-64-90.5-64s-77.4 26.7-90.5 64zM384 352l192 0v80c0 26.5-21.5 48-48 48H384V352zM192 480H48c-26.5 0-48-21.5-48-48V352l192 0V480zM576 320l-96 0V192h66.1c19.2 38.6 29.9 82 29.9 128z"/></svg>
